svg/u1f468_200d_1f467.svg

<svg viewBox="0 0 128 128" xmlns="http://www.w3.org/2000/svg">
  <g id="shirt_3_">
    <g>
      <linearGradient id="SVGID_1_" gradientTransform="matrix(1 0 0 -1 0 128)" gradientUnits="userSpaceOnUse" x1="64.001" x2="64.001" y1="4.2258" y2="58.8518">
        <stop offset="0" stop-color="#009E89"/>
        <stop offset="1" stop-color="#00BFA5"/>
      </linearGradient>
      <path d="M75.21,67.4c-1.83-0.43-6.52-0.65-11.21-0.65s-9.38,0.22-11.21,0.65 c-11.23,2.67-20.86,9.43-20.86,25.43V124h1.5h1.5h58.14h1.5h1.5V92.83C96.07,76.83,86.44,70.07,75.21,67.4z" fill="url(#SVGID_1_)"/>
    </g>
  </g>
  <g id="neck_1_">
    <path d="M64,74.12L64,74.12c-3.87,0-7-3.13-7-7V60.7h14v6.42C71,70.99,67.87,74.12,64,74.12z" fill="#E59600"/>
  </g>
  <g id="arm_1_">
    <linearGradient id="SVGID_2_" gradientTransform="matrix(1 0 0 -1 0 128)" gradientUnits="userSpaceOnUse" x1="36.929" x2="36.929" y1="3.8537" y2="30.9744">
      <stop offset="0.6057" stop-color="#FFCA28"/>
      <stop offset="1" stop-color="#FFB300"/>
    </linearGradient>
    <polygon fill="url(#SVGID_2_)" points="31.93,96.82 31.93,124 32.93,124 33.93,124 39.93,124 40.93,124 41.93,124 41.93,96.82 "/>
  </g>
  <g id="arm">
    <linearGradient id="SVGID_3_" gradientTransform="matrix(1 0 0 -1 0 128)" gradientUnits="userSpaceOnUse" x1="91.071" x2="91.071" y1="3.8537" y2="30.9744">
      <stop offset="0.6057" stop-color="#FFCA28"/>
      <stop offset="1" stop-color="#FFB300"/>
    </linearGradient>
    <polygon fill="url(#SVGID_3_)" points="86.07,96.82 86.07,124 87.07,124 88.07,124 94.07,124 95.07,124 96.07,124 96.07,96.82 "/>
  </g>
  <g id="ears_3_">
    <path d="M82.03,34.74H45.97c-3.89,0-7.07,3.39-7.07,7.53s3.18,7.53,7.07,7.53h36.05 c3.89,0,7.07-3.39,7.07-7.53S85.91,34.74,82.03,34.74z" fill="#E59600"/>
  </g>
  <path id="head_4_" d="M64,8.11L64,8.11L64,8.11c-11.48,0-22.11,12.28-22.11,29.94 c0,17.57,10.95,26.26,22.11,26.26s22.11-8.69,22.11-26.26C86.11,20.39,75.48,8.11,64,8.11z" fill="#FFCA28"/>
  <path id="mouth_1_" d="M69.55,51.54c-2.1,1.25-8.99,1.25-11.09,0c-1.21-0.72-2.44,0.38-1.94,1.48 c0.49,1.08,4.25,3.58,7.5,3.58s6.96-2.5,7.45-3.58C71.98,51.92,70.76,50.82,69.55,51.54z" fill="#795548"/>
  <path id="nose_1_" d="M66.54,46.2c-0.07-0.03-0.14-0.05-0.21-0.05h-4.67c-0.07,0.01-0.14,0.03-0.21,0.05 c-0.42,0.17-0.66,0.61-0.46,1.08c0.2,0.47,1.13,1.78,3,1.78c1.87,0,2.8-1.31,3-1.78C67.2,46.81,66.97,46.37,66.54,46.2z" fill="#E59600"/>
  <g id="eyes_1_">
    <ellipse cx="53.16" cy="40.17" fill="#404040" rx="3.25" ry="3.37"/>
    <ellipse cx="74.84" cy="40.17" fill="#404040" rx="3.25" ry="3.37"/>
  </g>
  <g id="eyebrows_1_">
    <path d="M48.16,34.51c0,0,1.78-2.35,4.97-2.35s5.01,2.38,5.01,2.38c0.33,0.47,0.23,1.11-0.24,1.45 c-0.28,0.2-0.63,0.24-0.94,0.14c0,0-0.97-0.44-1.88-0.66s-1.91-0.29-2.9-0.18c-1.5,0.17-2.73,0.81-2.73,0.81 C48.5,36.49,47.58,35.37,48.16,34.51z" fill="#6D4C41"/>
    <path d="M79.84,34.51c0,0-1.79-2.35-4.97-2.35s-5.01,2.38-5.01,2.38c-0.33,0.47-0.23,1.11,0.24,1.45 c0.28,0.2,0.63,0.24,0.94,0.14c0,0,0.97-0.44,1.88-0.66c0.91-0.22,1.91-0.29,2.9-0.18c1.5,0.17,2.73,0.81,2.73,0.81 C79.5,36.49,80.42,35.37,79.84,34.51z" fill="#6D4C41"/>
  </g>
  <g id="hairGroup">
    <path id="hair_7_" d="M64.08,4.2L64.08,4.2c0,0-0.01,0-0.01,0s-0.01,0-0.01,0v0 C34.32,4.36,40.41,38.33,40.41,38.33s1.33,3.5,1.94,5.05c0.09,0.22,0.41,0.2,0.46-0.04c0.64-2.84,2.92-12.91,4.07-15.97 c0.68-1.8,2.55-2.85,4.45-2.51c2.92,0.53,7.56,1.18,12.68,1.18c0.02,0,0.04,0,0.06,0s0.04,0,0.06,0c5.12,0,9.76-0.65,12.68-1.18 c1.9-0.34,3.77,0.71,4.45,2.51c1.15,3.05,3.42,13.06,4.06,15.94c0.05,0.24,0.38,0.26,0.46,0.03l1.95-5.02 C87.73,38.33,93.82,4.36,64.08,4.2z" fill="#543930"/>
    <radialGradient id="hairHighlights_1_" cx="64.0699" cy="95.6115" gradientTransform="matrix(1 0 0 -1.1282 0 140.2567)" gradientUnits="userSpaceOnUse" r="24.934">
      <stop offset="0.7945" stop-color="#6D4C41" stop-opacity="0"/>
      <stop offset="1" stop-color="#6D4C41"/>
    </radialGradient>
    <path id="hairHighlights" d="M87.73,38.33c0,0,6.09-33.97-23.65-34.13v0c0,0-0.01,0-0.01,0 h0c0,0-0.01,0-0.01,0l0,0c-0.46,0-0.92,0.01-1.36,0.03c-0.89,0.04-1.74,0.11-2.56,0.2c-0.01,0-0.02,0-0.03,0 C60.05,4.44,60,4.45,59.94,4.46C34.9,7.61,40.41,38.33,40.41,38.33l1.95,5.03c0.09,0.22,0.41,0.2,0.46-0.03 c0.64-2.87,2.92-12.9,4.07-15.95c0.68-1.8,2.55-2.85,4.45-2.51c2.92,0.53,7.56,1.18,12.68,1.18c0.02,0,0.04,0,0.06,0s0.04,0,0.06,0 c5.12,0,9.76-0.65,12.68-1.18c1.9-0.34,3.77,0.71,4.45,2.51c1.15,3.07,3.44,13.15,4.07,15.98c0.05,0.23,0.37,0.26,0.46,0.03 C86.39,41.84,87.73,38.33,87.73,38.33z" fill="url(#hairHighlights_1_)"/>
  </g>
  <g opacity="0.4">
    <radialGradient id="SVGID_4_" cx="63.9337" cy="13.4145" gradientTransform="matrix(1 0 0 -1 0 128)" gradientUnits="userSpaceOnUse" r="38.5143">
      <stop offset="0" stop-color="#212121"/>
      <stop offset="0.5743" stop-color="#616161" stop-opacity="0.05"/>
    </radialGradient>
    <path d="M75.21,67.4c-1.83-0.43-6.52-0.65-11.21-0.65s-9.38,0.22-11.21,0.65 c-11.23,2.67-20.86,9.43-20.86,25.43V124h1.5h1.5h58.14h1.5h1.5V92.83C96.07,76.83,86.44,70.07,75.21,67.4z" fill="url(#SVGID_4_)"/>
  </g>
  <path id="shirt_5_" d="M85.55,121.98c0-9.84-12.51-13.14-16.87-13.14h-9.38c-4.35,0-16.88,3.3-16.88,13.14 c0,0-0.01,0.79-0.03,2.02h1.02h0.97h39.19h0.98h1.02C85.57,122.98,85.55,121.98,85.55,121.98z" fill="#E1BEE7"/>
  <g id="neck_7_">
    <path d="M63.99,116.3c-2.6,0-4.57-1.92-4.57-4.29v-2.38h9.53v2.38C68.96,114.38,66.6,116.3,63.99,116.3z" fill="#E59600"/>
  </g>
  <g id="hair_x5F_back_2_">
    <g id="hair_13_">
      <path d="M45.46,111.07l0.62-2.92l-5.39,1.35c0,0-0.38-5.2,4.26-8.2c5.09-3.29,10.94,0.22,10.94,0.22 s-0.58,3.93-4.06,7.3C49.48,111.09,45.46,111.07,45.46,111.07z" fill="#543930"/>
    </g>
    <g id="hair_11_">
      <path d="M82.56,111.07l-0.62-2.92l5.39,1.35c0,0,0.38-5.2-4.26-8.2c-5.09-3.29-10.94,0.22-10.94,0.22 s0.58,3.93,4.06,7.3C78.53,111.09,82.56,111.07,82.56,111.07z" fill="#543930"/>
    </g>
    <radialGradient id="hairHighlights_3_" cx="79.9086" cy="22.6285" gradientTransform="matrix(0.8651 0.5016 0.3314 -0.5715 3.2797 78.2192)" gradientUnits="userSpaceOnUse" r="8.8799">
      <stop offset="0.5255" stop-color="#6D4C41" stop-opacity="0"/>
      <stop offset="1" stop-color="#6D4C41"/>
    </radialGradient>
    <path id="hairHighlights_7_" d="M82.56,111.07l-0.62-2.92l5.39,1.35c0,0,0.38-5.2-4.26-8.2 c-5.09-3.29-10.94,0.22-10.94,0.22s0.58,3.93,4.06,7.3C78.53,111.09,82.56,111.07,82.56,111.07z" fill="url(#hairHighlights_3_)"/>
    <radialGradient id="hairHighlights_4_" cx="1249.8959" cy="22.6285" gradientTransform="matrix(-0.8651 0.5016 -0.3314 -0.5715 1136.7379 -508.6629)" gradientUnits="userSpaceOnUse" r="8.8799">
      <stop offset="0.5255" stop-color="#6D4C41" stop-opacity="0"/>
      <stop offset="1" stop-color="#6D4C41"/>
    </radialGradient>
    <path id="hairHighlights_6_" d="M45.31,111.07l0.62-2.92l-5.39,1.35c0,0-0.38-5.2,4.26-8.2 c5.09-3.29,10.94,0.22,10.94,0.22s-0.58,3.93-4.06,7.3C49.34,111.09,45.31,111.07,45.31,111.07z" fill="url(#hairHighlights_4_)"/>
  </g>
  <g id="ears_7_">
    <path d="M78.94,89.21h-3.97H53.44h-3.97c-3.18,0-5.78,2.5-5.78,5.56s2.6,5.56,5.78,5.56h3.97h21.53h3.97 c3.18,0,5.39-2.5,5.39-5.56S82.12,89.21,78.94,89.21z" fill="#E59600"/>
  </g>
  <path id="head_1_" d="M63.99,66.27L63.99,66.27L63.99,66.27c-9.33,0-17.57,9.8-17.57,23.9 c0,14.02,9.87,20.96,17.57,20.96s17.57-6.93,17.57-20.96C81.56,76.06,73.32,66.27,63.99,66.27z" fill="#FFCA28"/>
  <path id="mouth_5_" d="M68.33,101.05c-1.64,0.97-7,0.97-8.64,0c-0.94-0.56-1.9,0.3-1.51,1.15 c0.38,0.84,3.31,2.79,5.84,2.79s5.42-1.95,5.8-2.79C70.22,101.35,69.27,100.49,68.33,101.05z" fill="#795548"/>
  <path id="nose_5_" d="M65.99,96.72c-0.05-0.02-0.11-0.04-0.17-0.04h-3.63c-0.06,0.01-0.11,0.02-0.17,0.04 c-0.33,0.13-0.51,0.47-0.35,0.84c0.16,0.36,0.88,1.38,2.34,1.38c1.46,0,2.18-1.02,2.34-1.38C66.5,97.19,66.32,96.85,65.99,96.72z" fill="#E59600"/>
  <g id="eyes_5_">
    <ellipse cx="55.46" cy="94.07" fill="#404040" rx="2.53" ry="2.62"/>
    <ellipse cx="72.55" cy="94.07" fill="#404040" rx="2.53" ry="2.62"/>
  </g>
  <g id="eyebrows_5_">
    <path d="M51.51,89.41c0.1-0.13,0.13-0.21,0.31-0.39c0.4-0.42,1.18-0.92,1.94-1.18 c0.73-0.25,1.07-0.25,1.62-0.25c0.85,0,1.37,0.18,1.62,0.25c0.35,0.12,0.68,0.28,1.01,0.46c0.55,0.33,1.74,1.14,1.38,1.87 c-0.4,0.81-1.01,0.51-1.56,0.3c-0.24-0.07-1.32-0.5-2.46-0.5c-0.62,0-0.88,0.07-1.04,0.09c-0.73,0.12-1.28,0.35-1.38,0.38 c-0.38,0.15-0.65,0.37-1.08,0.2C51.41,90.44,51.22,89.84,51.51,89.41z" fill="#6D4C41"/>
    <path d="M76.5,89.41c-0.1-0.13-0.13-0.21-0.31-0.39c-0.39-0.42-1.18-0.92-1.94-1.18 c-0.73-0.25-1.07-0.25-1.62-0.25c-0.85,0-1.37,0.18-1.62,0.25c-0.35,0.12-0.68,0.28-1.01,0.46c-0.55,0.33-1.74,1.14-1.38,1.87 c0.4,0.81,1.01,0.51,1.56,0.3c0.24-0.07,1.32-0.5,2.46-0.5c0.62,0,0.88,0.07,1.04,0.09c0.73,0.12,1.28,0.35,1.38,0.38 c0.38,0.15,0.65,0.37,1.07,0.2C76.6,90.44,76.79,89.84,76.5,89.41z" fill="#6D4C41"/>
  </g>
  <g id="hair_x5F_front_2_">
    <g id="hair_9_">
      <path d="M79.57,69.91c-2.33-2.43-4.56-3.32-4.78-3.35c-2.71-1.24-6.2-2.25-10.72-2.25 c-19.88,0-21.23,16.2-20.43,23.33c0.71,6.29,4.37,7.84,4.37,7.84l-0.6-7.11c0,0,7.11-2.18,11.04-4.83 c3.87-2.61,5.48-4.39,5.48-4.39s1.2,1.28,5.44,4.34c4.4,3.18,11.04,4.92,11.04,4.92l-0.51,7.07c0,0,3.85-1.54,4.4-7.84 C85,79.75,84.05,75.03,79.57,69.91z" fill="#543930"/>
    </g>
    <radialGradient id="hairHighlights_5_" cx="70.0596" cy="49.0474" gradientTransform="matrix(1.0432 0 0 -0.7737 -9.2029 116.8996)" gradientUnits="userSpaceOnUse" r="21.1108">
      <stop offset="0.6985" stop-color="#6D4C41" stop-opacity="0"/>
      <stop offset="1" stop-color="#6D4C41"/>
    </radialGradient>
    <path id="hairHighlights_2_" d="M79.57,69.91c-2.33-2.43-4.56-3.32-4.78-3.35 c-2.71-1.24-6.2-2.25-10.72-2.25c-19.88,0-21.23,16.2-20.43,23.33c0.71,6.29,4.37,7.84,4.37,7.84l-0.6-7.11 c0,0,7.11-2.18,11.04-4.83c3.87-2.61,5.48-4.39,5.48-4.39s1.2,1.28,5.44,4.34c4.4,3.18,11.04,4.92,11.04,4.92l-0.51,7.07 c0,0,3.85-1.54,4.4-7.84C85,79.75,84.05,75.03,79.57,69.91z" fill="url(#hairHighlights_5_)"/>
  </g>
</svg>

<svg viewBox="0 0 128 128" xmlns="http://www.w3.org/2000/svg">
  <defs>
    <linearGradient id="SVGID_2_" gradientTransform="matrix(1 0 0 -1 0 0)" gradientUnits="userSpaceOnUse" x1="36.929" x2="36.929" y1="-124.1463" y2="-97.0256">
      <stop offset="0.6057" stop-color="#FFCA28"/>
      <stop offset="1" stop-color="#FFB300"/>
    </linearGradient>
    <linearGradient id="SVGID_3_" gradientTransform="matrix(1 0 0 -1 0 0)" gradientUnits="userSpaceOnUse" x1="91.071" x2="91.071" y1="-124.1463" y2="-97.0256">
      <stop offset="0.6057" stop-color="#FFCA28"/>
      <stop offset="1" stop-color="#FFB300"/>
    </linearGradient>
    <radialGradient id="SVGID_4_" cx="63.9337" cy="-114.5855" gradientTransform="matrix(1 0 0 -1 0 0)" gradientUnits="userSpaceOnUse" r="38.5143">
      <stop offset="0" stop-color="#212121"/>
      <stop offset="0.5743" stop-color="#616161" stop-opacity="0.05"/>
    </radialGradient>
    <radialGradient id="hairHighlights_1_" cx="64.0699" cy="-28.707504" gradientTransform="matrix(1 0 0 -1.1282 0 0)" gradientUnits="userSpaceOnUse" r="24.934">
      <stop offset="0.7945" stop-color="#6D4C41" stop-opacity="0"/>
      <stop offset="1" stop-color="#6D4C41"/>
    </radialGradient>
    <radialGradient id="hairHighlights_3_" cx="121.983567" cy="-77.309201" gradientTransform="matrix(0.8651 0.5016 0.3314 -0.5715 0 0)" gradientUnits="userSpaceOnUse" r="8.8799">
      <stop offset="0.5255" stop-color="#6D4C41" stop-opacity="0"/>
      <stop offset="1" stop-color="#6D4C41"/>
    </radialGradient>
    <radialGradient id="hairHighlights_4_" cx="11.365197" cy="-174.369052" gradientTransform="matrix(-0.8651 0.5016 -0.3314 -0.5715 0 0)" gradientUnits="userSpaceOnUse" r="8.8799">
      <stop offset="0.5255" stop-color="#6D4C41" stop-opacity="0"/>
      <stop offset="1" stop-color="#6D4C41"/>
    </radialGradient>
    <radialGradient id="hairHighlights_5_" cx="61.237802" cy="-102.044238" gradientTransform="matrix(1.0432 0 0 -0.7737 0 0)" gradientUnits="userSpaceOnUse" r="21.1108">
      <stop offset="0.6985" stop-color="#6D4C41" stop-opacity="0"/>
      <stop offset="1" stop-color="#6D4C41"/>
    </radialGradient>
    <linearGradient id="SVGID_1_" gradientTransform="matrix(1 0 0 -1 0 0)" gradientUnits="userSpaceOnUse" x1="64.001" x2="64.001" y1="-123.7742" y2="-69.1482">
      <stop offset="0" stop-color="#009E89"/>
      <stop offset="1" stop-color="#00BFA5"/>
    </linearGradient>
  </defs>
  <path d="M75.21,67.4 C73.38,66.97 68.69,66.75 64,66.75 C59.31,66.75 54.62,66.97 52.79,67.4 C41.56,70.07 31.93,76.83 31.93,92.83 L31.93,124 L33.43,124 L34.93,124 L93.07,124 L94.57,124 L96.07,124 L96.07,92.83 C96.07,76.83 86.44,70.07 75.21,67.4 Z" fill="url(#SVGID_1_)"/>
  <path d="M64,74.12 L64,74.12 C60.13,74.12 57,70.99 57,67.12 L57,60.7 L71,60.7 L71,67.12 C71,70.99 67.87,74.12 64,74.12 Z" fill="#E59600"/>
  <path d="M31.93,96.82 L31.93,124 L32.93,124 L33.93,124 L39.93,124 L40.93,124 L41.93,124 L41.93,96.82 Z" fill="url(#SVGID_2_)"/>
  <path d="M86.07,96.82 L86.07,124 L87.07,124 L88.07,124 L94.07,124 L95.07,124 L96.07,124 L96.07,96.82 Z" fill="url(#SVGID_3_)"/>
  <path d="M82.03,34.74 L45.97,34.74 C42.08,34.74 38.9,38.13 38.9,42.27 C38.9,46.41 42.08,49.8 45.97,49.8 L82.02,49.8 C85.91,49.8 89.09,46.41 89.09,42.27 C89.09,38.13 85.91,34.74 82.03,34.74 Z" fill="#E59600"/>
  <path id="head_4_" d="M64,8.11 L64,8.11 L64,8.11 C52.52,8.11 41.89,20.39 41.89,38.05 C41.89,55.62 52.84,64.31 64,64.31 C75.16,64.31 86.11,55.62 86.11,38.05 C86.11,20.39 75.48,8.11 64,8.11 Z" fill="#FFCA28"/>
  <path id="mouth_1_" d="M69.55,51.54 C67.45,52.79 60.56,52.79 58.46,51.54 C57.25,50.82 56.02,51.92 56.52,53.02 C57.01,54.1 60.77,56.6 64.02,56.6 C67.27,56.6 70.98,54.1 71.47,53.02 C71.98,51.92 70.76,50.82 69.55,51.54 Z" fill="#795548"/>
  <path id="nose_1_" d="M66.54,46.2 C66.47,46.17 66.4,46.15 66.33,46.15 L61.66,46.15 C61.59,46.16 61.52,46.18 61.45,46.2 C61.03,46.37 60.79,46.81 60.99,47.28 C61.19,47.75 62.12,49.06 63.99,49.06 C65.86,49.06 66.79,47.75 66.99,47.28 C67.2,46.81 66.97,46.37 66.54,46.2 Z" fill="#E59600"/>
  <path d="M56.41,40.17 A3.25 3.37 0 1 1 49.91,40.17 A3.25 3.37 0 1 1 56.41,40.17 Z" fill="#404040"/>
  <path d="M78.09,40.17 A3.25 3.37 0 1 1 71.59,40.17 A3.25 3.37 0 1 1 78.09,40.17 Z" fill="#404040"/>
  <path d="M48.16,34.51 C48.16,34.51 49.94,32.16 53.13,32.16 C56.32,32.16 58.14,34.54 58.14,34.54 C58.47,35.01 58.37,35.65 57.9,35.99 C57.62,36.19 57.27,36.23 56.96,36.13 C56.96,36.13 55.99,35.69 55.08,35.47 C54.17,35.25 53.17,35.18 52.18,35.29 C50.68,35.46 49.45,36.1 49.45,36.1 C48.5,36.49 47.58,35.37 48.16,34.51 Z" fill="#6D4C41"/>
  <path d="M79.84,34.51 C79.84,34.51 78.05,32.16 74.87,32.16 C71.69,32.16 69.86,34.54 69.86,34.54 C69.53,35.01 69.63,35.65 70.1,35.99 C70.38,36.19 70.73,36.23 71.04,36.13 C71.04,36.13 72.01,35.69 72.92,35.47 C73.83,35.25 74.83,35.18 75.82,35.29 C77.32,35.46 78.55,36.1 78.55,36.1 C79.5,36.49 80.42,35.37 79.84,34.51 Z" fill="#6D4C41"/>
  <path id="hair_7_" d="M64.08,4.2 L64.08,4.2 C64.08,4.2 64.07,4.2 64.07,4.2 C64.07,4.2 64.06,4.2 64.06,4.2 L64.06,4.2 C34.32,4.36 40.41,38.33 40.41,38.33 C40.41,38.33 41.74,41.83 42.35,43.38 C42.44,43.6 42.76,43.58 42.81,43.34 C43.45,40.5 45.73,30.43 46.88,27.37 C47.56,25.57 49.43,24.52 51.33,24.86 C54.25,25.39 58.89,26.04 64.01,26.04 C64.03,26.04 64.05,26.04 64.07,26.04 C64.09,26.04 64.11,26.04 64.13,26.04 C69.25,26.04 73.89,25.39 76.81,24.86 C78.71,24.52 80.58,25.57 81.26,27.37 C82.41,30.42 84.68,40.43 85.32,43.31 C85.37,43.55 85.7,43.57 85.78,43.34 L87.73,38.32 C87.73,38.33 93.82,4.36 64.08,4.2 Z" fill="#543930"/>
  <path id="hairHighlights" d="M87.73,38.33 C87.73,38.33 93.82,4.36 64.08,4.2 L64.08,4.2 C64.08,4.2 64.07,4.2 64.07,4.2 L64.07,4.2 C64.07,4.2 64.06,4.2 64.06,4.2 L64.06,4.2 C63.6,4.2 63.14,4.21 62.7,4.23 C61.81,4.27 60.96,4.34 60.14,4.43 C60.13,4.43 60.12,4.43 60.11,4.43 C60.05,4.44 60,4.45 59.94,4.46 C34.9,7.61 40.41,38.33 40.41,38.33 L42.36,43.36 C42.45,43.58 42.77,43.56 42.82,43.33 C43.46,40.46 45.74,30.43 46.89,27.38 C47.57,25.58 49.44,24.53 51.34,24.87 C54.26,25.4 58.9,26.05 64.02,26.05 C64.04,26.05 64.06,26.05 64.08,26.05 C64.1,26.05 64.12,26.05 64.14,26.05 C69.26,26.05 73.9,25.4 76.82,24.87 C78.72,24.53 80.59,25.58 81.27,27.38 C82.42,30.45 84.71,40.53 85.34,43.36 C85.39,43.59 85.71,43.62 85.8,43.39 C86.39,41.84 87.73,38.33 87.73,38.33 Z" fill="url(#hairHighlights_1_)"/>
  <path d="M75.21,67.4 C73.38,66.97 68.69,66.75 64,66.75 C59.31,66.75 54.62,66.97 52.79,67.4 C41.56,70.07 31.93,76.83 31.93,92.83 L31.93,124 L33.43,124 L34.93,124 L93.07,124 L94.57,124 L96.07,124 L96.07,92.83 C96.07,76.83 86.44,70.07 75.21,67.4 Z" fill="url(#SVGID_4_)" opacity="0.4"/>
  <path id="shirt_5_" d="M85.55,121.98 C85.55,112.14 73.04,108.84 68.68,108.84 L59.3,108.84 C54.95,108.84 42.42,112.14 42.42,121.98 C42.42,121.98 42.41,122.77 42.39,124 L43.41,124 L44.38,124 L83.57,124 L84.55,124 L85.57,124 C85.57,122.98 85.55,121.98 85.55,121.98 Z" fill="#E1BEE7"/>
  <path d="M63.99,116.3 C61.39,116.3 59.42,114.38 59.42,112.01 L59.42,109.63 L68.95,109.63 L68.95,112.01 C68.96,114.38 66.6,116.3 63.99,116.3 Z" fill="#E59600"/>
  <path d="M45.46,111.07 L46.08,108.15 L40.69,109.5 C40.69,109.5 40.31,104.3 44.95,101.3 C50.04,98.01 55.89,101.52 55.89,101.52 C55.89,101.52 55.31,105.45 51.83,108.82 C49.48,111.09 45.46,111.07 45.46,111.07 Z" fill="#543930"/>
  <path d="M82.56,111.07 L81.94,108.15 L87.33,109.5 C87.33,109.5 87.71,104.3 83.07,101.3 C77.98,98.01 72.13,101.52 72.13,101.52 C72.13,101.52 72.71,105.45 76.19,108.82 C78.53,111.09 82.56,111.07 82.56,111.07 Z" fill="#543930"/>
  <path id="hairHighlights_7_" d="M82.56,111.07 L81.94,108.15 L87.33,109.5 C87.33,109.5 87.71,104.3 83.07,101.3 C77.98,98.01 72.13,101.52 72.13,101.52 C72.13,101.52 72.71,105.45 76.19,108.82 C78.53,111.09 82.56,111.07 82.56,111.07 Z" fill="url(#hairHighlights_3_)"/>
  <path id="hairHighlights_6_" d="M45.31,111.07 L45.93,108.15 L40.54,109.5 C40.54,109.5 40.16,104.3 44.8,101.3 C49.89,98.01 55.74,101.52 55.74,101.52 C55.74,101.52 55.16,105.45 51.68,108.82 C49.34,111.09 45.31,111.07 45.31,111.07 Z" fill="url(#hairHighlights_4_)"/>
  <path d="M78.94,89.21 L74.97,89.21 L53.44,89.21 L49.47,89.21 C46.29,89.21 43.69,91.71 43.69,94.77 C43.69,97.83 46.29,100.33 49.47,100.33 L53.44,100.33 L74.97,100.33 L78.94,100.33 C82.12,100.33 84.33,97.83 84.33,94.77 C84.33,91.71 82.12,89.21 78.94,89.21 Z" fill="#E59600"/>
  <path id="head_1_" d="M63.99,66.27 L63.99,66.27 L63.99,66.27 C54.66,66.27 46.42,76.07 46.42,90.17 C46.42,104.19 56.29,111.13 63.99,111.13 C71.69,111.13 81.56,104.2 81.56,90.17 C81.56,76.06 73.32,66.27 63.99,66.27 Z" fill="#FFCA28"/>
  <path id="mouth_5_" d="M68.33,101.05 C66.69,102.02 61.33,102.02 59.69,101.05 C58.75,100.49 57.79,101.35 58.18,102.2 C58.56,103.04 61.49,104.99 64.02,104.99 C66.55,104.99 69.44,103.04 69.82,102.2 C70.22,101.35 69.27,100.49 68.33,101.05 Z" fill="#795548"/>
  <path id="nose_5_" d="M65.99,96.72 C65.94,96.7 65.88,96.68 65.82,96.68 L62.19,96.68 C62.13,96.69 62.08,96.7 62.02,96.72 C61.69,96.85 61.51,97.19 61.67,97.56 C61.83,97.92 62.55,98.94 64.01,98.94 C65.47,98.94 66.19,97.92 66.35,97.56 C66.5,97.19 66.32,96.85 65.99,96.72 Z" fill="#E59600"/>
  <path d="M57.99,94.07 A2.53 2.62 0 1 1 52.93,94.07 A2.53 2.62 0 1 1 57.99,94.07 Z" fill="#404040"/>
  <path d="M75.08,94.07 A2.53 2.62 0 1 1 70.02,94.07 A2.53 2.62 0 1 1 75.08,94.07 Z" fill="#404040"/>
  <path d="M51.51,89.41 C51.61,89.28 51.64,89.2 51.82,89.02 C52.22,88.6 53,88.1 53.76,87.84 C54.49,87.59 54.83,87.59 55.38,87.59 C56.23,87.59 56.75,87.77 57,87.84 C57.35,87.96 57.68,88.12 58.01,88.3 C58.56,88.63 59.75,89.44 59.39,90.17 C58.99,90.98 58.38,90.68 57.83,90.47 C57.59,90.4 56.51,89.97 55.37,89.97 C54.75,89.97 54.49,90.04 54.33,90.06 C53.6,90.18 53.05,90.41 52.95,90.44 C52.57,90.59 52.3,90.81 51.87,90.64 C51.41,90.44 51.22,89.84 51.51,89.41 Z" fill="#6D4C41"/>
  <path d="M76.5,89.41 C76.4,89.28 76.37,89.2 76.19,89.02 C75.8,88.6 75.01,88.1 74.25,87.84 C73.52,87.59 73.18,87.59 72.63,87.59 C71.78,87.59 71.26,87.77 71.01,87.84 C70.66,87.96 70.33,88.12 70,88.3 C69.45,88.63 68.26,89.44 68.62,90.17 C69.02,90.98 69.63,90.68 70.18,90.47 C70.42,90.4 71.5,89.97 72.64,89.97 C73.26,89.97 73.52,90.04 73.68,90.06 C74.41,90.18 74.96,90.41 75.06,90.44 C75.44,90.59 75.71,90.81 76.13,90.64 C76.6,90.44 76.79,89.84 76.5,89.41 Z" fill="#6D4C41"/>
  <path d="M79.57,69.91 C77.24,67.48 75.01,66.59 74.79,66.56 C72.08,65.32 68.59,64.31 64.07,64.31 C44.19,64.31 42.84,80.51 43.64,87.64 C44.35,93.93 48.01,95.48 48.01,95.48 L47.41,88.37 C47.41,88.37 54.52,86.19 58.45,83.54 C62.32,80.93 63.93,79.15 63.93,79.15 C63.93,79.15 65.13,80.43 69.37,83.49 C73.77,86.67 80.41,88.41 80.41,88.41 L79.9,95.48 C79.9,95.48 83.75,93.94 84.3,87.64 C85,79.75 84.05,75.03 79.57,69.91 Z" fill="#543930"/>
  <path id="hairHighlights_2_" d="M79.57,69.91 C77.24,67.48 75.01,66.59 74.79,66.56 C72.08,65.32 68.59,64.31 64.07,64.31 C44.19,64.31 42.84,80.51 43.64,87.64 C44.35,93.93 48.01,95.48 48.01,95.48 L47.41,88.37 C47.41,88.37 54.52,86.19 58.45,83.54 C62.32,80.93 63.93,79.15 63.93,79.15 C63.93,79.15 65.13,80.43 69.37,83.49 C73.77,86.67 80.41,88.41 80.41,88.41 L79.9,95.48 C79.9,95.48 83.75,93.94 84.3,87.64 C85,79.75 84.05,75.03 79.57,69.91 Z" fill="url(#hairHighlights_5_)"/>
</svg>
